icons/symbol-variable.svg

<svg xmlns="http://www.w3.org/2000/svg" fill="#4dd0e1" viewBox="0 0 24 24"><path d="M20.41 3c1.39 2.71 1.94 5.84 1.59 9-.2 3.16-1.3 6.29-3.17 9l-1.53-1c1.61-2.43 2.55-5.2 2.7-8 .34-2.8-.11-5.57-1.3-8zM5.17 3 6.7 4C5.09 6.43 4.15 9.2 4 12c-.34 2.8.12 5.57 1.3 8l-1.69 1c-1.4-2.71-1.96-5.83-1.61-9 .2-3.16 1.3-6.29 3.17-9m6.91 7.68 2.32-3.23h2.53l-3.78 5 2.2 4.92h-2.26L11.71 14l-2.43 3.33H6.76l3.9-5.12-2.13-4.76h2.27z"/></svg>

<!--
  - The MIT License (MIT)
  -
  - Copyright (c) 2015-2024 Elior "Mallowigi" Boukhobza
  -
  - Permission is hereby granted, free of charge, to any person obtaining a copy
  - of this software and associated documentation files (the "Software"), to deal
  - in the Software without restriction, including without limitation the rights
  - to use, copy, modify, merge, publish, distribute, sublicense, and/or sell
  - copies of the Software, and to permit persons to whom the Software is
  - furnished to do so, subject to the following conditions:
  -
  - The above copyright notice and this permission notice shall be included in all
  - copies or substantial portions of the Software.
  -
  - THE SOFTWARE IS PROVIDED "AS IS", WITHOUT WARRANTY OF ANY KIND, EXPRESS OR
  - IMPLIED, INCLUDING BUT NOT LIMITED TO THE WARRANTIES OF MERCHANTABILITY,
  - FITNESS FOR A PARTICULAR PURPOSE AND NONINFRINGEMENT. IN NO EVENT SHALL THE
  - AUTHORS OR COPYRIGHT HOLDERS BE LIABLE FOR ANY CLAIM, DAMAGES OR OTHER
  - LIABILITY, WHETHER IN AN ACTION OF CONTRACT, TORT OR OTHERWISE, ARISING FROM,
  - OUT OF OR IN CONNECTION WITH THE SOFTWARE OR THE USE OR OTHER DEALINGS IN THE
  - SOFTWARE.
  -
  -->


<svg xmlns="http://www.w3.org/2000/svg" version="1.1" width="16px" height="16px" viewBox="0 0 24 24"
     fill="#4DD0E1">
  <path
      d="M20.41,3C21.8,5.71 22.35,8.84 22,12C21.8,15.16 20.7,18.29 18.83,21L17.3,20C18.91,17.57 19.85,14.8 20,12C20.34,9.2 19.89,6.43 18.7,4L20.41,3M5.17,3L6.7,4C5.09,6.43 4.15,9.2 4,12C3.66,14.8 4.12,17.57 5.3,20L3.61,21C2.21,18.29 1.65,15.17 2,12C2.2,8.84 3.3,5.71 5.17,3M12.08,10.68L14.4,7.45H16.93L13.15,12.45L15.35,17.37H13.09L11.71,14L9.28,17.33H6.76L10.66,12.21L8.53,7.45H10.8L12.08,10.68Z"/>
</svg>
